X: 2
T: The Battering Ram
R: jig
M: 6/8
L: 1/8
K: Dmaj
d|:B2G A2G|B2D D2d|BAG AGE|GDD D2d|B2G A2G|BdB BAG|ABA BAB|1 GDD D2d:|2 GDD D2B||:dBG A2B|dBG G2B|dBG AGE|GDD D2B|BdB BAG|BdB AGE|B2G AGE|GDD D2B:||:deg aga|bag age|deg aga|bag e2g|bag age|ged edB|dBG AGE|GDD D2B:||


Tune 382	Setting 25986

